!!!COM: Anon.
!!!OTL: Onde vai o seu D. Jorge
!!!OTL: Romanceiro Folclorico do Brasil
!!!CNT: Brasil
!!!OCY: Brasil
!!!ODT: <1971///
!!!PSR: Irmaos Vitale
!!!PSP: Sao Paulo, Brasil
!!!PDT: 1948///
!!!PPE: Rossini Tavares de Lima
!!!PPG: pages 10-11
!! Romance: Juliana E D. Jorge
!! Place: Sao Roque, Sao Paulo, Brasil
**kern
*clefG2
*k[]
*M3/4
*MM100
8g
8ee
=
4cc
4g
8a
8g
=
4f
4d
8g
8dd
=
4b
4g
8b
8dd
=
4cc
4g
8g
8g
=
4ff
4dd
8b
8g
=
4ee
4cc
8g
8a
=
4g
4f
8e
8f
=
2g
8g
8g
=
4ff
4dd
8ee
8ff
=
4ee
4cc
8g
8a
=
4g
4f
8e
8d
=
2c
==
*-
